X: 109
T: Hui guannan
%%abc-version 2.0
%%abcx-abcm2ps-target-version 5.9.1 (29 Sep 2008)
%%abc-creator hum2abc beta
%%abcx-conversion-date 2013/10/02 07:52:29
%%abc-edited-by Helmut Schaffrath
%%humdrum-veritas 1717978909
%%humdrum-veritas-data 3541273847
%%continueall 1
%%barnumbers 0
L: 1/16
M: 2/4
K: C
d d d e d c A c [I:setbarnb 1]| 
d8 | 
e d B AG4 | 
A A A B A G E D | 
G8 | 
A2 A2 d e d c | 
G z B d d2 B2 | 
A A A c A G F F | 
G8 |]  



